assets/car-favicon.svg

<svg fill="none" height="36" viewBox="0 0 51 36" width="51" xmlns="http://www.w3.org/2000/svg"><path d="m13 26h20s3 0 3-4c0-2 0-6-1-7s-8-7-11-7h-6c-3 0-10 7-10 7l-4 1s-3 1-3 3v3s-1 .338-1 1.957c0 2.043 2 2.043 2 2.043z" fill="#ba0621"/><path d="m20 10h-2c-2 0-8 6-8 6s4.997-.263 10-.519zm10 3c-1-1-5-3-7-3h-1v5.379c4.011-.204 7.582-.379 8-.379 1 0 1-1 0-2z" fill="#324f64"/><path d="m10 29c2.2091 0 4-1.7909 4-4s-1.7909-4-4-4c-2.20914 0-4 1.7909-4 4s1.79086 4 4 4z" fill="#292f33"/><path d="m10 27c1.1046 0 2-.8954 2-2s-.8954-2-2-2c-1.10457 0-2 .8954-2 2s.89543 2 2 2z" fill="#656a6d"/><path d="m27 29c2.2091 0 4-1.7909 4-4s-1.7909-4-4-4-4 1.7909-4 4 1.7909 4 4 4z" fill="#292f33"/><path d="m27 27c1.1046 0 2-.8954 2-2s-.8954-2-2-2-2 .8954-2 2 .8954 2 2 2z" fill="#656a6d"/><g fill="#292f33"><path d="m39 16.25c-.4142 0-.75.3358-.75.75s.3358.75.75.75zm11 1.5c.4142 0 .75-.3358.75-.75s-.3358-.75-.75-.75zm-11 0h11v-1.5h-11z"/><path d="m39 22.25c-.4142 0-.75.3358-.75.75s.3358.75.75.75zm8 1.5c.4142 0 .75-.3358.75-.75s-.3358-.75-.75-.75zm-8 0h8v-1.5h-8z"/><path d="m35 10.25c-.4142 0-.75.3358-.75.75s.3358.75.75.75zm10 1.5c.4142 0 .75-.3358.75-.75s-.3358-.75-.75-.75zm-10 0h10v-1.5h-10z"/></g></svg>

<svg width="51" height="36" viewBox="0 0 51 36" fill="none" xmlns="http://www.w3.org/2000/svg">
<path d="M13 26H33C33 26 36 26 36 22C36 20 36 16 35 15C34 14 27 8 24 8H18C15 8 8 15 8 15L4 16C4 16 1 17 1 19V22C1 22 0 22.338 0 23.957C0 26 2 26 2 26H13Z" fill="#BA0621"/>
<path d="M20 10H18C16 10 10 16 10 16C10 16 14.997 15.737 20 15.481V10ZM30 13C29 12 25 10 23 10H22V15.379C26.011 15.175 29.582 15 30 15C31 15 31 14 30 13V13Z" fill="#324F64"/>
<path d="M10 29C12.2091 29 14 27.2091 14 25C14 22.7909 12.2091 21 10 21C7.79086 21 6 22.7909 6 25C6 27.2091 7.79086 29 10 29Z" fill="#292F33"/>
<path d="M10 27C11.1046 27 12 26.1046 12 25C12 23.8954 11.1046 23 10 23C8.89543 23 8 23.8954 8 25C8 26.1046 8.89543 27 10 27Z" fill="#656A6D"/>
<path d="M27 29C29.2091 29 31 27.2091 31 25C31 22.7909 29.2091 21 27 21C24.7909 21 23 22.7909 23 25C23 27.2091 24.7909 29 27 29Z" fill="#292F33"/>
<path d="M27 27C28.1046 27 29 26.1046 29 25C29 23.8954 28.1046 23 27 23C25.8954 23 25 23.8954 25 25C25 26.1046 25.8954 27 27 27Z" fill="#656A6D"/>
<path d="M39 16.25C38.5858 16.25 38.25 16.5858 38.25 17C38.25 17.4142 38.5858 17.75 39 17.75V16.25ZM50 17.75C50.4142 17.75 50.75 17.4142 50.75 17C50.75 16.5858 50.4142 16.25 50 16.25V17.75ZM39 17.75H50V16.25H39V17.75Z" fill="#292F33"/>
<path d="M39 22.25C38.5858 22.25 38.25 22.5858 38.25 23C38.25 23.4142 38.5858 23.75 39 23.75V22.25ZM47 23.75C47.4142 23.75 47.75 23.4142 47.75 23C47.75 22.5858 47.4142 22.25 47 22.25V23.75ZM39 23.75H47V22.25H39V23.75Z" fill="#292F33"/>
<path d="M35 10.25C34.5858 10.25 34.25 10.5858 34.25 11C34.25 11.4142 34.5858 11.75 35 11.75V10.25ZM45 11.75C45.4142 11.75 45.75 11.4142 45.75 11C45.75 10.5858 45.4142 10.25 45 10.25V11.75ZM35 11.75H45V10.25H35V11.75Z" fill="#292F33"/>
</svg>
